X:1
T:James Gibb editions
T:Dall'orto se ne vien - Azzaiolo
T:#
%%score [ 1 2 3 4 ]
L:1/8
Q:1/4=120
M:4/4
K:F
V:1 treble nm="Soprano" snm="S"
V:2 treble nm="Alto" snm="A"
V:3 treble-8 nm="Tenor" snm="T"
V:4 bass nm="Bass" snm="B"
V:1
"^Dall'orto se ne vien""^Filippo Azzaiolo\n(C16th)" z2 G2 G2 G2 | A2 A2 B3 B | A2 G2 ^FFBB | %3
w: Dal- l'or- to|se ne vien la|vil- la- nel- la, do la|
 AG ^F2 G2 G2 | G2 B2 B2 A2 |[M:4/4] B3 B A2 G2- | G2 ^F2 G2 B2 | B2 B2 A2 G2 | ^F2 F2 z2 G2 | %9
w: vil- la- nel- la Col|ces- to- let- to|pien di maz- zo\-|* la- na, Oh!|che gen- til fa-|sa- na fat-|
 G3 G ABBA | B3 B A2 G2- | G2 ^F2 G4 | z8 | z2 GG G2 G2 | ^F4 G4 | z4 z2 GG | GGG^F G2 z2 | %17
w: ta, fat- ta di ro- se~~E|fior a- dor- na~~e|* bel- la||el- la non è|quel- la|e so|ben, so ben de no|
 z4 z GGG | GGG^F G2 z G ||[M:6/8] x6 |[M:6/8] G2 B B2 A | B3 B2 G | A2 B B2 A | B3 B2 B | B3 BBB | %25
w: e do tu|re- tu- rel- la mò? Tu-||re- la- mo, vil-|la- no, la|put- ta del ces-|tel Lo la|ti fa- rà sten-|
 A3 A2 A | G2 G2 G^F | (GG/^F/ E/F/ G)GB | B3 BBB | (A>G F/G/ A)AA | G2 G2 G^F ||[M:4/4] G4 G4 | %32
w: za- re, sì|ti da- rà mar-|tel\- * * * * * lo, la|ti fa- rà sten-|za\- * * * * re, sì|ti da- rà mar-|tel- lo.|
 z8 | z GGG GGG^F |[M:4/4] G4 z4 | z GGG GGG^F ||[M:6/8] G2 B B2 B | A2 B2 BA |[M:6/8] B2 B B2 B | %39
w: |E do guar- de, guar- de~~in co'|là|e de co' là, co' là si|tien Dam- me- la|pur chè la mi|vien, dam- me- la|
 A2 G G2 ^F | G3 GGG |[Q:1/4=118] G2[Q:1/4=116] G[Q:1/4=113] G2[Q:1/4=111] G | %42
w: pur chè la mi|vien, dam- me- la|pur chè la mi|
[Q:1/4=108] G3[Q:1/4=105] G[Q:1/4=104]G[Q:1/4=102]G |[Q:1/4=102] G6 |] %44
w: vien, chè la mi|vien.|
V:2
 z2 D2 D2 D2 | F2 F2 F3 F | F2 D2 DDFF | FD D2 D2 z D | D2 D2 F2 F2 |[M:4/4] F3 F F2 D2 | %6
w: Dal- l'or- to|se ne vien la|vil- la- nel- la, do la|vil- la- nel- la Col|ces- to- let- to|pien di maz- zo-|
 D4 D2 =F2 | F2 F2 F2 D2 | D2 D2 z2 D2 | D3 D FFFF | F3 F F2 D2 | D4 D4 | z8 | z2 DD E2 E2 | %14
w: la- na, Oh!|che gen- til fa-|sa- na fat-|ta, fat- ta di ro- se~~E|fior a- dor- na~~e|bel- la||el- la non è|
 D4 =B,4 | z4 z2 DD | EEDD D2 z2 | z4 z DDD | EEDD D2 z D ||[M:6/8] x6 |[M:6/8] D2 D F2 F | %21
w: quel- ~la|e so|ben, so ben de no|e do tu|re- tu- rel- la mò? Tu-||re- la- mo, vil-|
 F3 F2 G | F2 E F2 F | (F>_E D/E/) F2 F | F3 FFF | F3 F2 F | D2 _E2 DD | D3 D2 F | F3 FFF | %29
w: la- no, la|put- ta del ces-|tel * * * Lo la|ti fa- rà sten-|za- re, sì|ti da- rà mar-|tel- lo, la|ti fa- rà sten-|
 F3 F2 F | D2 E2 DD ||[M:4/4] D4 D4 | z8 | z DDD EEDD |[M:4/4] D4 z4 | z DDD EEDD || %36
w: za- re, sì|ti da- rà mar-|tel- lo.||E do guar- de, guar- de~~in co'|là|e de co' là, co' là si|
[M:6/8] D2 F F2 F | F2 E2 FF |[M:6/8] F2 F F2 F | F2 D D D2 | D3 EEE | E2 E G2 ^F | E3 EEE | D6 |] %44
w: tien Dam- me- la|pur chè la mi|vien, dam- me- la|pur chè la mi|vien, dam- me- la|pur chè la mi|vien, chè la mi|vien.|
V:3
 z2 G2 B2 B2 | c2 c2 d3 d | c2 B2 AAdd | cB A2 G2 z B | B2 B2 c2 c2 | %5
w: Dal- l'or- to|se ne vien la|vil- la- nel- la, do la|vil- la- nel- la Col|ces- to- let- to|
[M:4/4][K:treble-8] d3 d c2 B2 | A4 G2 d2 | d2 d2 c2 B2 | A2 A2 z2 B2 | B3 B cccc | d3 d c2 =B2 | %11
w: pien di maz- zo-|la- na, Oh!|che gen- til fa-|sa- na fat-|ta, fat- ta di ro- se~~E|fior a- dor- na~~e|
 A4 =B2 d2 | c2 =B2 A4 | =B4 z4 | z4 z2 =BB | ccAA =B4 | z4 z =BBB | ccAA =B4 | z4 z2 z _B || %19
w: bel- la or-|vel- la~~or- vel-|la|E so|ben so ben di sì|E do tu|re- tu- rel- la su,|Tu-|
[M:6/8] x6 |[M:6/8][K:treble-8] B2 B c2 c | d3 c2 d | c2 B c2 c | d3 d2 d | d3 ddd | %25
w: |re- la- mo, vil-|la- no, la|put- ta del ces-|tel Lo la|ti fa- rà sten-|
 (c>BA/B/) c2 c | B2 c2 AA | =B3 B2 d | (d>cB) ddd | c3 c2 c | =B2 c2 AA ||[M:4/4] =B4 B4 | %32
w: za\- * * * re, sì|ti da- rà mar-|tel- lo, la|ti * * fa- rà sten-|za- re, sì|ti da- rà mar-|tel- lo.|
 z =BBB ccAA | =B4 z4 |[M:4/4][K:treble-8] z =BBB ccAA | =B4 z4 ||[M:6/8] z2 d d2 d | c2 B2 cc | %38
w: E do guar- de, guar- de~~in co'|là|e do guar- de, guar- de~~in co'|là|Dam- me- la|pur chè la mi|
[M:6/8][K:treble-8] d2 d d2 d | c2 B B A2 | =B3 ccc | c2 c c2 c | c3 ccc | =B6 |] %44
w: vien, dam- me- la|pur chè la mi|vien, dam- me- la|pur chè la mi|vien, chè la mi|vien.|
V:4
 z2 G,2 G,2 G,2 | F,2 F,2 B,,3 B,, | F,2 G,2 D,D,B,,B,, | F,F, D,2 G,,2 G,2 | G,2 G,2 F,2 F,2 | %5
w: Dal- l'or- to|se ne vien la|vil- la- nel- la, do la|vil- la- nel- la Col|ces- to- let- to|
[M:4/4] B,,3 B,, F,2 G,2 | A,4 G,2 B,,2 | B,,2 B,,2 F,2 G,2 | D,2 D,2 z2 G,2 | G,3 G, F,2 F,2 | %10
w: pien di maz- zo-|la- na, Oh!|che gen- til fa-|sa- na fat-|ta di ro- se~~E|
 B,,3 B,, F,2 G,2 | D,4 G,,2 B,,2 | F,2 G,2 D,4 | G,4 z4 | z4 z2 G,G, | C,C,D,D, G,4 | %16
w: fior a- dor- na~~e|bel- la or-|vel- la~~or- vel-|la|E so|ben so ben di sì|
 z4 z G,G,G, | C,C,D,D, G,4 | z4 z2 z G, ||[M:6/8] x6 |[M:6/8] G,2 G, F,2 F, | B,,3 F,2 B, | %22
w: E do tu|re- tu- rel- la su,|Tu-||re- la- mo, vil-|la- no, la|
 A,2 G, F,2 F, | B,,3 B,,2 B,, | B,,3 B,,B,,B,, | F,3 F,2 F, | G,2 C,2 D,D, | G,3 (G,_B,,)B,, | %28
w: put- ta del ces-|tel Lo la|ti fa- rà sten-|za- re, sì|ti da- rà mar-|tel- lo, * la|
 B,,3 B,,B,,B,, | F,3 F,2 F, | G,2 C,2 D,D, ||[M:4/4] G,,4 G,,4 | z G,G,G, C,C,D,D, | G,4 z4 | %34
w: ti fa- rà sten-|za- re, sì|ti da- rà mar-|tel- lo.|E do guar- de, guar- de~~in co'|là|
[M:4/4] z G,G,G, C,C,D,D, | G,4 z4 ||[M:6/8] z2 B,, B,,2 B,, | F,2 G,2 F,F, | %38
w: e do guar- de, guar- de~~in co'|là|Dam- me- la|pur chè la mi|
[M:6/8] B,,2 B,, B,,2 B,, | F,2 G, D, D,2 | G,3 C,C,C, | C,2 C, C,2 C, | C,3 C,C,C, | G,6 |] %44
w: vien, dam- me- la|pur chè la mi|vien, dam- me- la|pur chè la mi|vien, chè la mi|vien.|

